svgs/icons/lg/lock.svg

<svg xmlns="http://www.w3.org/2000/svg" viewBox="0 0 24 24" enable-background="new 0 0 24 24"><path fill="#34363D" d="M17 10v-3.2c0-2.6-2.2-4.8-4.8-4.8h-.4c-2.6 0-4.8 2.2-4.8 4.8v3.2c-1.1.1-2 1-2 2.1v7.7c0 1.2 1 2.2 2.2 2.2h9.7c1.2 0 2.2-1 2.2-2.2v-7.7c-.1-1.1-1-2-2.1-2.1zm-5.2-6h.4c1.5 0 2.8 1.3 2.8 2.8v3.2h-6v-3.2c0-1.5 1.3-2.8 2.8-2.8z"/></svg>

<svg xmlns="http://www.w3.org/2000/svg" viewBox="0 0 24 24"><path fill="#34363D" d="M17 10V6.8C17 4.2 14.8 2 12.2 2h-.4C9.2 2 7 4.2 7 6.8V10c-1.1.1-2 1-2 2.1v7.7C5 21 6 22 7.2 22h9.7c1.2 0 2.2-1 2.2-2.2v-7.7c-.1-1.1-1-2-2.1-2.1zm-5.2-6h.4C13.7 4 15 5.3 15 6.8V10H9V6.8C9 5.3 10.3 4 11.8 4z"/></svg>
